app/assets/v2/images/home/kudos.svg

<svg height="33" width="28" xmlns="http://www.w3.org/2000/svg"><g fill="none" fill-rule="evenodd" stroke-width="2"><path d="m26.583 9.285-12.748-7.335-12.747 7.335v14.669l12.747 7.334 12.748-7.334v-14.67zm-12.748-7.335 12.748 7.335v14.669l-12.748 7.334-12.747-7.334v-14.67z" stroke="#fff"/><path d="m22.941 11.118-9.106-5.5-9.105 5.5v11.002l9.105 5.501 9.106-5.5v-11.004zm-9.106-5.5 9.106 5.5v11.002l-9.106 5.501-9.105-5.501v-11.002z" stroke="#25e899"/></g></svg>

<svg width="28" height="33" xmlns="http://www.w3.org/2000/svg"><g stroke-width="2" fill="none" fill-rule="evenodd"><path d="M26.583 9.285L13.835 1.95 1.088 9.285v14.669l12.747 7.334 12.748-7.334V9.284zM13.835 1.95l12.748 7.335v14.669l-12.748 7.334-12.747-7.334V9.284L13.835 1.95z" stroke="#FFF"/><path d="M22.941 11.118l-9.106-5.5-9.105 5.5V22.12l9.105 5.501 9.106-5.5V11.117zm-9.106-5.5l9.106 5.5V22.12l-9.106 5.501L4.73 22.12V11.118l9.105-5.5z" stroke="#25E899"/></g></svg>
